X:52
T: O DU KLEINER KLADRIAN
N: K0641
O: Europa, Mitteleuropa, Deutschland, Bergisches Land
R: Kinder -, Tier - Lied
M: 2/4
L: 1/8
K: G
 | GGFD | GGD
D | GGFA | G2Dz |
GGFD | AAA2 |
GGFA | G2D
D | GGDD | GGD2 |
GGFD | AAA
A | GGFA | G2Dz

@@@ Tune index: 7389
